svg/400/sharp/soap-fill.svg

<svg xmlns="http://www.w3.org/2000/svg" width="48" height="48" viewBox="0 -960 960 960"><path d="M760-80H80v-427l374-241 54 54-84 134h376v60H480v80h400v60H480v80h360v60H480v80h280v60ZM629.899-660Q605-660 587.5-677.601t-17.5-42.5Q570-745 587.601-762.5t42.5-17.5Q655-780 672.5-762.399t17.5 42.5Q690-695 672.399-677.5t-42.5 17.5Zm69.983-160Q679-820 664.5-834.618q-14.5-14.617-14.5-35.5Q650-891 664.618-905.5q14.617-14.5 35.5-14.5Q721-920 735.5-905.382q14.5 14.617 14.5 35.5Q750-849 735.382-834.5q-14.617 14.5-35.5 14.5Zm140.029 160Q811-660 790.5-680.589q-20.5-20.588-20.5-49.5Q770-759 790.589-779.5q20.588-20.5 49.5-20.5Q869-800 889.5-779.411q20.5 20.588 20.5 49.5Q910-701 889.411-680.5q-20.588 20.5-49.5 20.5Z"/></svg>

<svg xmlns="http://www.w3.org/2000/svg" width="48" height="48" viewBox="0 -960 960 960"><path d="M760-80H80v-427l374-241 54 54-84 134h376v60H480v80h400v60H480v80h360v60H480v80h280v60ZM629.9-660q-24.9 0-42.4-17.6T570-720.1q0-24.9 17.6-42.4t42.5-17.5q24.9 0 42.4 17.6t17.5 42.5q0 24.9-17.6 42.4T629.9-660Zm69.98-160q-20.88 0-35.38-14.62-14.5-14.62-14.5-35.5 0-20.88 14.62-35.38 14.62-14.5 35.5-14.5 20.88 0 35.38 14.62 14.5 14.62 14.5 35.5 0 20.88-14.62 35.38-14.62 14.5-35.5 14.5Zm140.03 160q-28.91 0-49.41-20.59-20.5-20.59-20.5-49.5t20.59-49.41q20.59-20.5 49.5-20.5t49.41 20.59q20.5 20.59 20.5 49.5t-20.59 49.41q-20.59 20.5-49.5 20.5Z"/></svg>
